icons/boyd-law-building-two-color.svg

<?xml version="1.0" encoding="UTF-8"?><svg id="uuid-6a8a9b7b-0703-4538-8cfc-bc0ca2837b11" xmlns="http://www.w3.org/2000/svg" viewBox="0 0 50 50"><g id="uuid-8ef79049-cfab-4565-b221-f35a7ff8081e"><g><path d="M44.8,32.74s-.03,0-.05,0l-.87,.07c-.14,.01-.28-.04-.38-.13-.1-.09-.16-.23-.16-.37l.02-6.76h-10.74c-.28,0-.5-.22-.5-.5v-3.36c-.17-.08-.29-.25-.29-.45-.02-2.89-2.37-5.2-5.34-5.26h-.11c-2.99,0-5.43,2.36-5.45,5.26,0,.2-.12,.37-.29,.45v3.36c0,.28-.22,.5-.5,.5H9.39v.57h8.49v.99H9.39v5.21c0,.14-.06,.27-.16,.37-.1,.09-.24,.14-.38,.13l-.85-.07s-.03,0-.05,0H3.04v1.95h2.75v6.09H3.04v1.91H49.71v-9.95h-4.92ZM10.07,40.78h-3.28v-6.04l3.28,.27v5.78Zm7.81,0h-6.81v-5.74h6.81v5.74Zm6.56-17.84c1.01,0,2.01,.09,3,.24l-1.14,1.07h-3.35l-1.14-1.08c.87-.13,1.75-.23,2.63-.23Zm3.59,1.06v4.76l-1.03-1.34v-2.44l1.03-.97Zm-2.03,1.25v1.83h-2.75v-1.83h2.75Zm-4.78-1.25l1.03,.97v2.44l-1.03,1.34v-4.76Zm0,16.79h-2.34v-5.81l1.91-.29h.43v6.09Zm2.76,0h-1.76v-6.1h1.76v6.1Zm2.76,0h-1.76v-6.1h1.76v6.1Zm-5.1-10.95l1.35-1.76h3.25l1.35,1.76h-5.96Zm8.73,10.95h-2.62v-6.1h.71l1.92,.29v5.81Zm1-14.65h10.23v.99h-10.23v-.99Zm6.81,14.65h-6.81v-5.74h6.81v5.74Zm4.28,0h-3.28v-5.78l3.28-.27v6.04Zm5.5,0h-4.5v-6.09h4.5v6.09Z" fill="#ffcd00"/><path d="M48.46,29.84h-5.5s-.03,0-.05,.01l-.32,.03v-2.21s.02-.03,.02-.05,0-.03-.01-.05v-1.9s.01-.02,.01-.03,0-.02,0-.03v-2.44c0-.13-.05-.26-.14-.35-.09-.09-.22-.15-.35-.15h-10.74v-3.28c0-.21-.13-.38-.32-.46-.23-3.1-2.76-5.58-5.93-5.82V7.81c0-.28-.22-.5-.5-.5s-.5,.22-.5,.5v5.3c-3.17,.24-5.7,2.72-5.93,5.82-.19,.07-.32,.25-.32,.46v3.28H7.14c-.28,0-.5,.22-.5,.5v6.71l-.3-.02s-.03-.01-.05-.01H.79c-.28,0-.5,.22-.5,.5v10.95c0,.28,.22,.5,.5,.5H48.46c.28,0,.5-.22,.5-.5v-10.95c0-.28-.22-.5-.5-.5Zm-.5,3.86h-4.5v-2.86h4.5v2.86ZM7.64,26.13h10.24v.99H7.64v-.99ZM24.59,14.38c1.34,1.29,1.64,3.09,1.69,4.12-.46-.02-.93-.05-1.39-.06-.66,0-1.32,0-1.98,.03,.06-1.04,.36-2.81,1.68-4.1Zm-5.72,5.44c1.99-.26,4-.38,6-.37,1.83,.01,3.67,.14,5.49,.37v10.3l-1.34-.2v-7.07s0-.03,0-.05c0-.03,0-.06-.02-.09,0-.02,0-.03-.01-.05,0-.02-.02-.03-.03-.05-.01-.03-.03-.05-.05-.07,0-.01-.01-.02-.02-.04h0s-.03-.03-.04-.04c-.02-.02-.05-.04-.08-.05-.01,0-.03-.02-.04-.03-.02,0-.03,0-.05-.01-.02,0-.03-.02-.04-.02-1.38-.29-2.79-.42-4.2-.41-1.28,.01-2.56,.15-3.81,.41-.02,0-.03,.01-.04,.02-.02,0-.04,0-.05,.01-.02,0-.03,.02-.04,.03-.03,.02-.05,.03-.08,.05-.01,.01-.03,.02-.04,.03h0s-.01,.03-.02,.04c-.02,.02-.03,.05-.05,.07,0,.02-.02,.03-.03,.05,0,.02,0,.03-.01,.05,0,.03-.01,.06-.02,.09,0,.02,0,.03,0,.05v7.07l-1.34,.2v-10.3Zm22.72,7.3h-10.23v-.99h10.23v.99Zm.86,13.67h-3.28v-5.78l3.28-.27v6.04Zm-20.74-7.1h-.5v-2.85h6.81v2.85h-6.31Zm-11.66,.32h-.15l-3.13-.27v-2.85l3.28,.27v2.85Zm-3.28,.73l3.28,.27v5.78h-3.28v-6.04Zm4.28-3.54h6.81v2.85h-6.81v-2.85Zm31.39-.31v2.85l-3.13,.26h-.15v-2.83l3.28-.27Zm-4.28,3.16h-6.81v-2.85h6.81v2.85Zm-19.3-.08v-2.84l1.34-.2v2.84l-1.34,.2Zm2.93-10.79c.87-.13,1.75-.23,2.63-.23,1.01,0,2.01,.09,3,.24l-1.14,1.07h-3.35l-1.14-1.08Zm1.45,2.08h2.75v1.83h-2.75v-1.83Zm-.25,2.83h3.25l1.35,1.76h-5.96l1.35-1.76Zm6.03,2.85l1.34,.2v2.84l-1.34-.2v-2.84Zm-2.03-3.52v-2.44l1.03-.97v4.76l-1.03-1.34Zm-4.75-2.44v2.44l-1.03,1.34v-4.76l1.03,.97Zm-3.37,10.01l1.91-.29h.43v6.09h-2.34v-5.81Zm9.57-.29h0l1.92,.29v5.81h-2.62v-6.1h.7Zm2.92,.36h6.81v5.74h-6.81v-5.74Zm7.29-4.85h-7.29v-2.08h10.23v1.84l-2.94,.24Zm2.95-6.54v1.47h-10.24v-1.47h10.24Zm-11.57-4.87c-.91-.11-1.83-.2-2.75-.25-.04-1.05-.29-2.83-1.49-4.32,2.25,.48,3.98,2.31,4.24,4.57Zm-6.66-4.55c-1.17,1.48-1.43,3.24-1.47,4.29-.9,.05-1.8,.14-2.69,.25,.26-2.23,1.96-4.03,4.16-4.54Zm-5.5,9.42v1.47H7.64v-1.47h10.24Zm-10.24,4.46h10.24v2.08h-7.29l-2.95-.24v-1.84Zm-1.85,2.72v2.86H1.29v-2.86H5.79Zm-4.5,3.86H5.79v6.09H1.29v-6.09Zm9.78,.35h6.81v5.74h-6.81v-5.74Zm11.16-.36h1.76v6.1h-1.76v-6.1Zm2.76,6.1v-6.1h1.76v6.1h-1.76Zm18.47,0v-6.09h4.5v6.09h-4.5Z"/></g></g></svg>

<svg id="fa9690f0-2d73-449c-9254-487613e10196" data-name="ICONS" xmlns="http://www.w3.org/2000/svg" viewBox="0 0 50 50"><g id="a2882e9b-8472-4493-83a7-eef6f4d14a8b" data-name="Layer 4"><path d="M44.8,32.74h0l-.87.07a.5.5,0,0,1-.54-.5l0-6.76H32.62a.5.5,0,0,1-.5-.5V21.71a.51.51,0,0,1-.29-.46A5.35,5.35,0,0,0,26.48,16h-.1a5.4,5.4,0,0,0-5.46,5.26.51.51,0,0,1-.29.46v3.35a.5.5,0,0,1-.5.5H9.39v.57h8.49v1H9.39v5.21a.5.5,0,0,1-.54.5L8,32.75H3v1.95H5.79v6.09H3v1.91H49.71V32.74Zm-34.73,8H6.79v-6l3.28.27Zm7.81,0H11.07V35.05h6.81Zm6.56-17.84a18.77,18.77,0,0,1,3,.24L26.3,24.25H23l-1.14-1.08A19.32,19.32,0,0,1,24.44,22.94ZM28,24v4.75l-1-1.34V25Zm-2,1.25v1.83H23.25V25.25ZM21.22,24l1,1v2.44l-1,1.34Zm0,16.78H18.88V35l1.91-.29h.43Zm2.77,0H22.22V34.69H24Zm2.76,0H25V34.69h1.76Zm-5.1-10.94L23,28.08h3.25l1.35,1.76Zm8.72,10.94H27.75V34.69h.71l1.91.29Zm1-14.65H41.6v1H31.37Zm6.81,14.65H31.37V35.05h6.81Zm4.28,0H39.18V35l3.28-.27Zm5.5,0h-4.5V34.69H48Z" fill="#fdd600"/><path d="M48.46,29.84H42.91l-.32,0v-2.2s0,0,0-.06a.43.43,0,0,1,0-.05v-1.9s0,0,0,0V23.16a.51.51,0,0,0-.15-.36.5.5,0,0,0-.35-.14H31.37V19.38a.5.5,0,0,0-.31-.46,6.38,6.38,0,0,0-5.93-5.81V7.81a.5.5,0,0,0-.5-.5.5.5,0,0,0-.5.5v5.3a6.39,6.39,0,0,0-5.94,5.81.5.5,0,0,0-.31.46v3.28H7.14a.5.5,0,0,0-.5.5v6.71l-.3,0H.79a.5.5,0,0,0-.5.5V41.28a.5.5,0,0,0,.5.5H48.46a.5.5,0,0,0,.5-.5V30.34A.5.5,0,0,0,48.46,29.84ZM48,33.69h-4.5V30.84H48ZM7.64,26.13H17.88v1H7.64Zm17-11.75a6.11,6.11,0,0,1,1.69,4.12l-1.39-.06c-.66,0-1.32,0-2,0A6.21,6.21,0,0,1,24.59,14.38Zm-5.71,5.44a44.45,44.45,0,0,1,6-.38,43.78,43.78,0,0,1,5.49.38v10.3L29,29.91V22.84s0,0,0-.05,0-.06,0-.09,0,0,0,0,0,0,0-.05l0-.08s0,0,0,0h0l0,0-.08-.05,0,0h-.05l-.05,0a19.12,19.12,0,0,0-4.2-.41,19.49,19.49,0,0,0-3.81.41l-.05,0h-.05l0,0-.08.05,0,0h0s0,0,0,0l0,.08s0,0,0,.05,0,0,0,0,0,.06,0,.09,0,0,0,.05v7.07l-1.34.21ZM41.6,27.11H31.37v-1H41.6Zm.86,13.67H39.18V35l3.28-.27ZM21.72,33.69h-.5V30.84H28v2.85H21.72ZM10.07,34H9.92l-3.13-.26V30.89l3.28.27Zm-3.28.74,3.28.27v5.77H6.79Zm4.28-3.54h6.81v2.85H11.07Zm31.39-.31v2.84L39.33,34h-.15V31.16Zm-4.28,3.16H31.37V31.2h6.81ZM18.88,34V31.13l1.34-.2v2.83Zm2.93-10.8a19.32,19.32,0,0,1,2.63-.23,18.77,18.77,0,0,1,3,.24L26.3,24.25H23Zm1.44,2.08H26v1.83H23.25ZM23,28.08h3.25l1.35,1.76h-6Zm6,2.85,1.34.2V34L29,33.76Zm-2-3.52V25l1-1v4.75ZM22.25,25v2.44l-1,1.34V24ZM18.88,35l1.91-.29h.43v6.09H18.88Zm9.57-.29h0l1.91.29v5.8H27.75V34.69Zm2.92.36h6.81v5.73H31.37Zm7.29-4.85H31.37V28.11H41.6V30Zm3-6.54v1.47H31.37V23.66ZM30,18.79c-.92-.11-1.83-.2-2.75-.25a7.41,7.41,0,0,0-1.49-4.32A5.35,5.35,0,0,1,30,18.79Zm-6.66-4.55a7.43,7.43,0,0,0-1.47,4.29c-.9,0-1.8.14-2.69.25A5.34,5.34,0,0,1,23.38,14.24Zm-5.5,9.42v1.47H7.64V23.66ZM7.64,28.11H17.88V30.2H10.59L7.64,30ZM5.79,30.84v2.85H1.29V30.84Zm-4.5,3.85h4.5v6.09H1.29Zm9.78.36h6.81v5.73H11.07Zm11.15-.36H24v6.09H22.22ZM25,40.78V34.69h1.76v6.09Zm18.47,0V34.69H48v6.09Z" fill="#231f20"/></g></svg>
